svg/generator_portable.svg

<svg xmlns="http://www.w3.org/2000/svg" viewBox="0 0 24 24"><path d="M7 2c-1.1 0-2 .9-2 2v2H4c-1.1 0-2 .9-2 2v12h2v1c0 .55.45 1 1 1h1c.55 0 1-.45 1-1v-1h10v1c0 .55.45 1 1 1h1c.55 0 1-.45 1-1v-1h2V8a2 2 0 0 0-2-2h-1V4a2 2 0 0 0-2-2zm7 8V8h6v2zm0 4v-2h6v2zM7 4h10v2H7zm0 4v4h2l-3 6v-4H4z"/></svg>

<svg xmlns="http://www.w3.org/2000/svg" id="mdi-generator-portable" viewBox="0 0 24 24"><path d="M7 2C5.9 2 5 2.9 5 4V6H4C2.9 6 2 6.9 2 8V20H4V21C4 21.55 4.45 22 5 22H6C6.55 22 7 21.55 7 21V20H17V21C17 21.55 17.45 22 18 22H19C19.55 22 20 21.55 20 21V20H22V8C22 6.9 21.11 6 20 6H19V4C19 2.9 18.11 2 17 2H7M14 10V8H20V10H14M14 14V12H20V14H14M7 4H17V6H7V4M7 8V12H9L6 18V14H4L7 8Z" /></svg>
